X:1
T:Tennent, 76.76 D
T:Tennent, 76.76 D
T:Uzziah Christopher Burnap, 1895
T:Public Domain Courtesy of the Cyber Hymnal™
C:Uzziah Christopher Burnap, 1895
Z:Public Domain
Z:Courtesy of the Cyber Hymnal™
%%score ( 1 2 ) ( 3 4 )
L:1/8
Q:1/4=110
M:4/4
K:A
V:1 treble 
V:2 treble 
V:3 bass 
V:4 bass 
V:1
 [CE]2 | [CE]2 [Ec]2 [Dc]2 [DF]2 | [CF]4 [CE]2 [CE]2 | [DE]2 [DE]2 [DE]2 [DE]2 | [CE]6 [CE]2 | %5
 [CE]2 [Cc]2 [Cc]2 [DG]2 | [DB]4 [CA]2 [EA]2 | [EG]2 [EA]2 [^DF]3 E | E6 E2 | %9
 [Fd]2 [Ec]2 [EG]2 [EA]2 | [DF]4 [DE]2 [DE]2 | [=CA]2 [C=c]2 [DG]2 [^DA]2 | [EB]6 [DE]2 | %13
 [DF]2 [Fc]2 [Dc]2 [DF]2 | [CF]4 [CE]2 [Ec]2 | [FB]2 [Fc]2 [Fd]2 [EG]2 | [EA]6 |] %17
V:2
 x2 | x8 | x8 | x8 | x8 | x8 | x8 | x8 | E6 E2 | x8 | x8 | x8 | x8 | x8 | x8 | x8 | x6 |] %17
V:3
 [A,,E,]2 | [A,,E,]2 [A,,E,]2 [A,,F,]2 [A,,G,]2 | [A,,A,]4 [A,,A,]2 [A,,A,]2 | %3
 [E,A,]2 [E,B,]2 [E,F,]2 [E,G,]2 | [A,,A,]6 [A,,A,]2 | [A,,E,]2 [A,,E,]2 [A,,^E,]2 [A,,F,]2 | %6
 (F,2 G,2) [A,,A,]2 [F,,=C]2 | [B,,B,]2 [B,,C]2 [B,,A,]3 [E,G,] | [E,G,]6 [E,G,]2 | %9
 [E,G,]2 [E,A,]2 [E,B,]2 [E,C]2 | [E,A,]4 [E,G,]2 [E,G,]2 | [=F,A,]2 [F,A,]2 [F,B,]2 [F,A,]2 | %12
 [E,G,]6 [E,G,]2 | [A,,A,]2 [A,,E,]2 [A,,F,]2 [A,,G,]2 | [A,,A,]4 [A,,A,]2 [A,,A,]2 | %15
 [D,A,]2 [C,A,]2 [B,,A,]2 [E,D]2 | [A,,C]6 |] %17
V:4
 x2 | x8 | x8 | x8 | x8 | x8 | A,,4 x4 | x8 | x8 | x8 | x8 | x8 | x8 | x8 | x8 | x8 | x6 |] %17

